X:3116
T: Bingsjö Schottis
R: Schottis
S: Utlärd av Jonny Soling
Z: Karin Arén
M: 4/4
L: 1/8
K: D
|: vA/B/A/F/ A(A/d/) vf/g/f/e/ ff/a/ | uguG G>B v(TB/A/)G/B/ A2 | 
vA/B/A/F/ A(A/d/) vf/g/f/e/ fu(a | g/f/)v(e/d/ c/)uA/B/c/ vd(d/c/ d2) :| 
vf(f/d/) A/F/A/d/ fd A>f | v(g/f/)e/d/ u(c/d/)e/g/ v(b/a/)a/^g/ a2 | 
vf(f/d/) A/F/A/d/ fd A>f | v(g/f/)e/d/ u(c/A/)B/c/ d/u(e/d/c/ d2) :|
(:musicend:)



(:music:)
